X: 10782
T: The BALDERSTON QUADRILLES No. 2.--la Et\`e.
N: Yes, "Et\`e" in the title should be "\'Et\'e".
%R: march, reel
B: W. Hamilton "Universal Tune-Book" Vol. 1 Glasgow 1844 p.78 #2
S: http://imslp.org/wiki/Hamilton's_Universal_Tune-Book_(Various)
Z: 2016 John Chambers <jc:trillian.mit.edu>
M: 2/4
L: 1/16
K: Bb
% - - - - - - - - - - - - - - - - - - - - - - - - -
P: Bonnie Jeanie Gray.
(Bc) |\
d3f edcB | G3A B2G2 | FB2 (B2cd) | d2c2 c2Bc |\
(de).g.f (ed).c.B | G3A B2G2 | Fd3 d3c | B4- B2 H|]
|: c2 |\
d3e f2B2 | g3f d2B2 | c3d edcB | d2c2 c2(Bc) |\
(de).g.f (ed).c.B | G3A B2G2 | Fd3 d3c | B4- "^D.C."B2 :|
% - - - - - - - - - - - - - - - - - - - - - - - - -

%%sep 1 1 500
%%sep 1 1 500

